src/basic/800/u1F4DE-phone.svg

<svg width="9" height="16" viewBox="0 0 9 16" fill="none" xmlns="http://www.w3.org/2000/svg">
<path fill-rule="evenodd" clip-rule="evenodd" d="M1.61053,5.31562c0.00009,1.01896 0.31391,2.30887 0.96547,3.6117c0.65156,1.30288 1.49537,2.32768 2.31058,2.93898c0.84197,0.6314 1.51602,0.7324 1.93399,0.5234l0.43046,-0.2153l-0.95726,-1.9141l-0.43047,0.2152c-0.00096,0.0005 -0.00193,0.001 -0.00289,0.0015c-0.55066,0.2735 -1.14596,0.0278 -1.57397,-0.2931c-0.45552,-0.3416 -0.88249,-0.87554 -1.20058,-1.51157c-0.31808,-0.63603 -0.48916,-1.29794 -0.48921,-1.8673c-0.00004,-0.53592 0.16107,-1.16082 0.71253,-1.43662l0.43047,-0.21527l-0.47864,-0.95706l-0.47863,-0.95706l-0.41214,0.20612l-0.44729,-0.89439l0.4472,-0.22364l0.41214,-0.20612l0.44719,-0.22364l0.22365,0.44719l0.70227,1.40425l0.70228,1.40425l0.22365,0.44719l-0.4472,0.22365l-0.87766,0.43892c-0.03019,0.0151 -0.15985,0.12508 -0.15982,0.54214c0.00003,0.38364 0.1199,0.89281 0.3836,1.4201c0.2637,0.52729 0.5992,0.92863 0.90612,1.15879c0.33368,0.25021 0.49945,0.21243 0.52964,0.19733l0.87766,-0.43892l0.44719,-0.22365l0.22365,0.4472l1.40455,2.80851l0.22365,0.4472l-0.4472,0.2236l-0.87765,0.4389c-0.93924,0.4698 -2.04415,0.085 -2.98121,-0.6176c-0.96381,-0.7228 -1.8991,-1.8802 -2.60504,-3.29179c-0.70594,-1.41158 -1.07098,-2.85422 -1.07108,-4.0589c-0.0001,-1.17125 0.35486,-2.28608 1.2941,-2.7558l0.44729,0.89439c-0.41796,0.20903 -0.74148,0.80893 -0.74139,1.86132z" fill="black"/>
</svg>

<svg width="9" height="16" viewBox="0 0 9 16" fill="none" xmlns="http://www.w3.org/2000/svg">
<path fill-rule="evenodd" clip-rule="evenodd" d="M1.61053 5.31562C1.61062 6.33458 1.92444 7.62449 2.576 8.92732C3.22756 10.2302 4.07137 11.255 4.88658 11.8663C5.72855 12.4977 6.4026 12.5987 6.82057 12.3897L7.25103 12.1744L6.29377 10.2603L5.8633 10.4755C5.86234 10.476 5.86137 10.4765 5.86041 10.477C5.30975 10.7505 4.71445 10.5048 4.28644 10.1839C3.83092 9.8423 3.40395 9.30836 3.08586 8.67233C2.76778 8.0363 2.5967 7.37439 2.59665 6.80503C2.59661 6.26911 2.75772 5.64421 3.30918 5.36841L3.73965 5.15314L3.26101 4.19608L2.78238 3.23902L2.37024 3.44514L1.92295 2.55075L2.37015 2.32711L2.78229 2.12099L3.22948 1.89735L3.45313 2.34454L4.1554 3.74879L4.85768 5.15304L5.08133 5.60023L4.63413 5.82388L3.75647 6.2628C3.72628 6.2779 3.59662 6.38788 3.59665 6.80494C3.59668 7.18858 3.71655 7.69775 3.98025 8.22504C4.24395 8.75233 4.57945 9.15367 4.88637 9.38383C5.22005 9.63404 5.38582 9.59626 5.41601 9.58116L6.29367 9.14224L6.74086 8.91859L6.96451 9.36579L8.36906 12.1743L8.59271 12.6215L8.14551 12.8451L7.26786 13.284C6.32862 13.7538 5.22371 13.369 4.28665 12.6664C3.32284 11.9436 2.38755 10.7862 1.68161 9.37461C0.975673 7.96303 0.610632 6.52039 0.610528 5.31571C0.610427 4.14446 0.965391 3.02963 1.90463 2.55991L2.35192 3.4543C1.93396 3.66333 1.61044 4.26323 1.61053 5.31562Z" fill="black"/>
</svg>
